X:7
T:The Fairy Jig
R:jig
D:Andrea Beaton, The Tap Session
Z:Paul Stewart Cranford (P.S.C.), <http://www.cranfordpub.com>
L:1/8
M:6/8
Q:300
K:G
g|:dBA BGD|GBd g2 g|age dBG|BAA Age|
dBA BGD|GBd gab|age dBA|[1BGG Gge:|[2BGG GBd||
|:edd dga|baa aga|bge dBG|[1BAA ABd|
edd dga|baa aga|bge dBA|BGG G2 d:|
[2BAA Age|dBA BGD|GBd gab|age dBA|BGG G2|]

